uiw/mail.svg

<svg xmlns="http://www.w3.org/2000/svg" viewBox="0 0 20 20" height="1em" width="1em">
  <path fill="#555" fill-rule="evenodd" d="M7.172,11.334 L10.0016129,13.2687863 L12.73,11.387 L18.844647,17.4201015 C18.6835279,17.47198 18.5117028,17.5 18.3333333,17.5 L1.66666667,17.5 C1.44656147,17.5 1.23642159,17.4573334 1.04406658,17.3798199 L7.172,11.334 Z M20,6.376 L20,15.8333333 C20,16.0799316 19.9464441,16.3140212 19.8503291,16.5246054 L13.856,10.611 L20,6.376 Z M0,6.429 L6.042,10.561 L0.105700422,16.4187119 C0.0373700357,16.2365871 1.90096522e-15,16.0393243 1.77635684e-15,15.8333333 L0,6.429 Z M18.3333333,2.5 C19.2538079,2.5 20,3.24619208 20,4.16666667 L20,4.753 L9.99838709,11.6476481 L0,4.81 L1.77635684e-15,4.16666667 C1.66363121e-15,3.24619208 0.746192084,2.5 1.66666667,2.5 L18.3333333,2.5 Z"/>
</svg>

<svg xmlns="http://www.w3.org/2000/svg" viewBox="0 0 20 20" height="1em" width="1em">
  <path fill="#555" fill-rule="evenodd" d="m7.172 11.334 2.83 1.935 2.728-1.882 6.115 6.033c-.161.052-.333.08-.512.08H1.667c-.22 0-.43-.043-.623-.12l6.128-6.046ZM20 6.376v9.457c0 .247-.054.481-.15.692l-5.994-5.914L20 6.376ZM0 6.429l6.042 4.132-5.936 5.858A1.663 1.663 0 0 1 0 15.833V6.43ZM18.333 2.5c.92 0 1.667.746 1.667 1.667v.586L9.998 11.648 0 4.81v-.643C0 3.247.746 2.5 1.667 2.5h16.666Z"/>
</svg>
